assets/dist/images/features/integrations/vero.svg

<svg xmlns="http://www.w3.org/2000/svg" xmlns:xlink="http://www.w3.org/1999/xlink" width="188" height="188" viewBox="0 0 188 188">
  <defs>
    <circle id="vero-b" cx="87" cy="87" r="87"/>
    <filter id="vero-a" width="112.6%" height="112.6%" x="-6.3%" y="-5.2%" filterUnits="objectBoundingBox">
      <feMorphology in="SourceAlpha" operator="dilate" radius="1" result="shadowSpreadOuter1"/>
      <feOffset dy="2" in="shadowSpreadOuter1" result="shadowOffsetOuter1"/>
      <feGaussianBlur in="shadowOffsetOuter1" result="shadowBlurOuter1" stdDeviation="3"/>
      <feComposite in="shadowBlurOuter1" in2="SourceAlpha" operator="out" result="shadowBlurOuter1"/>
      <feColorMatrix in="shadowBlurOuter1" values="0 0 0 0 0.207843137   0 0 0 0 0.258823529   0 0 0 0 0.329411765  0 0 0 0.101137908 0"/>
    </filter>
    <path id="vero-c" d="M66.1000988,0.0043792154 C66.0064524,0.00140134893 65.9122827,0 65.8181131,0 L65.8181131,0 L9.10079637,0 C9.04603848,0 8.99145498,0.000350337232 8.93687148,0.00140134893 L8.93687148,0.00140134893 C8.88315991,0.000350337232 8.82962274,0 8.77573679,0 L8.77573679,0 C3.89269313,0 0,3.91011385 0,8.81483509 L0,8.81483509 C0,9.91506917 0.209614602,10.9706353 0.592571063,11.9428211 L0.592571063,11.9428211 C0.771667732,12.4905733 1.0069174,13.028341 1.30006394,13.5489421 L1.30006394,13.5489421 L29.6587223,62.8476967 C30.0653956,63.5539766 30.5531593,64.1819561 31.1026565,64.727256 L31.1026565,64.727256 C32.6997035,66.4284936 34.9843632,67.5 37.5405453,67.5 L37.5405453,67.5 C39.6759286,67.5 41.6416323,66.6998298 43.1546242,65.384839 L43.1546242,65.384839 C44.0119165,64.7083378 44.7596931,63.8578941 45.3412777,62.8476967 L45.3412777,62.8476967 L73.6999361,13.5489421 C73.9875022,13.0385008 74.2190897,12.5115936 74.3969656,11.9750521 L74.3969656,11.9750521 C74.7858513,10.9937575 75,9.92733098 75,8.81483509 L75,8.81483509 C75,3.91011385 71.1073069,0 66.386793,0 L66.386793,0 C66.2907051,0 66.1951404,0.00140134893 66.1000988,0.0043792154 L66.1000988,0.0043792154 Z M40.3033773,46.3603011 L62.7302215,7.26406734 C62.8107888,7.15353594 62.863454,7.06927984 62.8927513,7.01918161 L62.8927513,7.01918161 C63.5562983,5.74010038 64.845027,4.89701383 66.386793,4.89701383 L66.386793,4.89701383 C68.4161483,4.89701383 70.1246294,6.61541795 70.1246294,8.81483509 L70.1246294,8.81483509 C70.1246294,9.56648363 69.8775214,10.3048193 69.4745103,10.9370029 L69.4745103,10.9370029 C69.4296925,10.9709856 69.4003953,11.0249375 69.3934198,11.10026 L69.3934198,11.10026 L44.6911585,54.0325113 L40.3033773,46.3603011 Z M9.10079637,4.89701383 L58.5047957,4.89701383 L54.1170145,12.5695744 L9.10079637,12.5695744 C9.02389118,12.5695744 8.94872987,12.567122 8.85700169,12.5695744 L8.85700169,12.5695744 C8.80084869,12.567122 8.72708249,12.5695744 8.61338139,12.5695744 L8.61338139,12.5695744 C6.5034587,12.5695744 4.79428007,10.8518709 4.79428007,8.81483509 L4.79428007,8.81483509 C4.79428007,6.61471728 6.5034587,4.89701383 8.61338139,4.89701383 L8.61338139,4.89701383 C8.72708249,4.89701383 8.8006743,4.89929102 8.85700169,4.89701383 L8.85700169,4.89701383 C8.88751962,4.89788967 8.91629367,4.89806484 8.943847,4.89806484 L8.943847,4.89806484 C8.99895367,4.89806484 9.04935186,4.89701383 9.10079637,4.89701383 L9.10079637,4.89701383 Z M23.6915073,17.4665882 L51.3086671,17.4665882 L37.4999128,41.4716953 L23.6915073,17.4665882 Z M33.965413,60.5622718 C33.970819,60.5046413 33.9436145,60.4594478 33.8839737,60.3990146 L33.8839737,60.3990146 L9.26315178,17.4665882 L18.039063,17.4665882 L40.547172,56.562822 C40.5769924,56.66985 40.6258211,56.7639155 40.7095274,56.8893363 L40.7095274,56.8893363 C41.0544672,57.4644148 41.2783817,58.188737 41.2783817,59.0113289 L41.2783817,59.0113289 C41.2783817,61.0485399 39.5707725,62.7660682 37.5405453,62.7660682 L37.5405453,62.7660682 C35.9377434,62.7660682 34.6045457,61.8509873 33.965413,60.5622718 L33.965413,60.5622718 Z"/>
  </defs>
  <g fill="none" fill-rule="evenodd" transform="translate(7 5)">
    <use fill="#000" filter="url(#vero-a)" xlink:href="#vero-b"/>
    <circle cx="87" cy="87" r="87.5" fill="#FFF" stroke="#E1E1E1"/>
    <use fill="#0AA6D2" transform="translate(50 57)" xlink:href="#vero-c"/>
  </g>
</svg>

<svg xmlns="http://www.w3.org/2000/svg" xmlns:xlink="http://www.w3.org/1999/xlink" width="188" height="188" viewBox="0 0 188 188"><defs><filter id="a" width="112.6%" height="112.6%" x="-6.3%" y="-5.2%" filterUnits="objectBoundingBox"><feMorphology in="SourceAlpha" operator="dilate" radius="1" result="shadowSpreadOuter1"/><feOffset dy="2" in="shadowSpreadOuter1" result="shadowOffsetOuter1"/><feGaussianBlur in="shadowOffsetOuter1" result="shadowBlurOuter1" stdDeviation="3"/><feComposite in="shadowBlurOuter1" in2="SourceAlpha" operator="out" result="shadowBlurOuter1"/><feColorMatrix in="shadowBlurOuter1" values="0 0 0 0 0.207843137 0 0 0 0 0.258823529 0 0 0 0 0.329411765 0 0 0 0.101137908 0"/></filter><circle id="b" cx="87" cy="87" r="87"/><path id="c" d="M66.1.004A8.88 8.88 0 0065.818 0H9.101l-.164.001A8.224 8.224 0 008.776 0C3.893 0 0 3.91 0 8.815c0 1.1.21 2.156.593 3.128.179.548.414 1.085.707 1.606l28.36 49.299a8.899 8.899 0 001.444 1.88A8.794 8.794 0 0037.54 67.5c2.135 0 4.1-.8 5.614-2.115a8.842 8.842 0 002.186-2.537l28.359-49.3c.288-.51.52-1.036.697-1.573A8.56 8.56 0 0075 8.815C75 3.91 71.107 0 66.387 0c-.096 0-.192.001-.287.004zM40.303 46.36L62.73 7.264c.08-.11.133-.195.163-.245a3.886 3.886 0 013.494-2.122c2.03 0 3.738 1.718 3.738 3.918 0 .751-.247 1.49-.65 2.122a.22.22 0 00-.082.163L44.691 54.033l-4.388-7.673zM9.101 4.897h49.404l-4.388 7.673H9.101c-.077 0-.152-.003-.244 0-.056-.003-.13 0-.244 0-2.11 0-3.819-1.718-3.819-3.755 0-2.2 1.71-3.918 3.82-3.918.113 0 .187.002.243 0l.087.001.157-.001zm14.59 12.57H51.31L37.5 41.472 23.693 17.467zm10.274 43.095c.006-.057-.021-.103-.081-.163L9.264 17.467h8.775l22.508 39.096c.03.107.079.2.163.326.344.575.568 1.3.568 2.122 0 2.038-1.707 3.755-3.737 3.755a3.967 3.967 0 01-3.576-2.204z"/></defs><g fill="none" fill-rule="evenodd" transform="translate(7 5)"><use fill="#000" filter="url(#a)" xlink:href="#b"/><circle cx="87" cy="87" r="87.5" fill="#FFF" stroke="#E1E1E1"/><use fill="#0AA6D2" transform="translate(50 57)" xlink:href="#c"/></g></svg>
